svg/emoji_u1f601.svg

<?xml version="1.0" encoding="UTF-8" standalone="no"?>
<svg
   width="100%"
   height="100%"
   viewBox="0 0 128 128"
   version="1.1"
   xml:space="preserve"
   style="fill-rule:evenodd;clip-rule:evenodd;stroke-linejoin:round;stroke-miterlimit:2;"
   id="svg51372"
   sodipodi:docname="emoji_u1f601.svg"
   inkscape:version="1.2.2 (732a01da63, 2022-12-09)"
   xmlns:inkscape="http://www.inkscape.org/namespaces/inkscape"
   xmlns:sodipodi="http://sodipodi.sourceforge.net/DTD/sodipodi-0.dtd"
   xmlns="http://www.w3.org/2000/svg"
   xmlns:svg="http://www.w3.org/2000/svg"><defs
   id="defs51376" /><sodipodi:namedview
   id="namedview51374"
   pagecolor="#ffffff"
   bordercolor="#000000"
   borderopacity="0.25"
   inkscape:showpageshadow="2"
   inkscape:pageopacity="0.0"
   inkscape:pagecheckerboard="0"
   inkscape:deskcolor="#d1d1d1"
   showgrid="false"
   inkscape:zoom="2.9996795"
   inkscape:cx="70.174162"
   inkscape:cy="78.341702"
   inkscape:window-width="1366"
   inkscape:window-height="697"
   inkscape:window-x="-8"
   inkscape:window-y="-8"
   inkscape:window-maximized="1"
   inkscape:current-layer="svg51372" />
    <path
   d="M63.89,9.64C1.58,9.64 0.1,79.5 0.1,93.33C0.1,107.16 28.66,118.36 63.89,118.36C99.13,118.36 127.68,107.15 127.68,93.33C127.68,79.5 126.21,9.64 63.89,9.64Z"
   style="fill:rgb(252,194,27);fill-rule:nonzero;"
   id="path51358" />
    <path
   d="m 31.96,51.85 c -0.772,1.274 -2.451,1.692 -3.73,0.93 -1.276,-0.758 -1.708,-2.428 -0.96,-3.71 0.18,-0.31 4.6,-7.62 14.37,-7.62 9.78,0 14.2,7.31 14.39,7.62 0.243,0.418 0.371,0.892 0.371,1.375 0,1.499 -1.232,2.733 -2.731,2.735 -0.92,0 -1.83,-0.47 -2.34,-1.32 C 51.2,51.64 48.21,46.9 41.64,46.9 35.07,46.89 32.1,51.64 31.96,51.85 Z M 100,52.79 c -0.43,0.26 -0.91,0.38 -1.37,0.38 -0.94,0 -1.85,-0.49 -2.36,-1.34 -0.11,-0.2 -3.08,-4.94 -9.66,-4.94 -6.69,0 -9.66,4.89 -9.69,4.94 -0.496,0.802 -1.374,1.292 -2.317,1.292 -1.495,0 -2.724,-1.229 -2.724,-2.724 0,-0.469 0.121,-0.93 0.351,-1.338 0.18,-0.31 4.6,-7.62 14.38,-7.62 9.77,0 14.18,7.31 14.36,7.62 0.76,1.3 0.32,2.97 -0.97,3.73 z"
   style="fill:#2f2f2f;fill-rule:nonzero"
   id="path51360" />
    <path
   d="m 96.462,62.716 c -3.09,-2.09 -6.98,-0.71 -10.42,0 -9.58,1.98 -18,2.06 -22.04,2.06 -4.04,0 -12.46,-0.08 -22.04,-2.06 -3.44,-0.71 -7.33,-2.09 -10.42,0 -3.92,2.65 -1.03,12.15 5.14,18.57 3.73,3.88 12.61,11.41 27.32,11.41 14.71,0 23.59,-7.53 27.32,-11.41 6.17,-6.42 9.05,-15.92 5.14,-18.57 z"
   style="fill:#ffffff;fill-rule:nonzero"
   id="path51362" />
    
    
    
<path
   d="m 96.462,62.716 c -3.09,-2.09 -6.98,-0.71 -10.42,0 -9.58,1.98 -18,2.06 -22.04,2.06 -4.04,0 -12.46,-0.08 -22.04,-2.06 -3.44,-0.71 -7.33,-2.09 -10.42,0 -3.92,2.65 -1.03,12.15 5.14,18.57 3.73,3.88 12.61,11.41 27.32,11.41 14.71,0 23.59,-7.53 27.32,-11.41 6.17,-6.42 9.05,-15.92 5.14,-18.57 z"
   style="fill:none;fill-rule:nonzero;stroke:#2f2f2f;stroke-width:6;stroke-dasharray:none;stroke-opacity:1"
   id="path51495" /><path
   style="font-variation-settings:'opsz' 12, 'wght' 400;fill:none;stroke:#2f2f2f;stroke-width:5.34337;stroke-linecap:round;stroke-dasharray:none;stroke-opacity:1;paint-order:stroke fill markers"
   d="M 44.497691,63.219451 V 85.296413"
   id="path52586" /><path
   style="font-variation-settings:'opsz' 12, 'wght' 400;fill:none;stroke:#2f2f2f;stroke-width:5.34337;stroke-linecap:round;stroke-dasharray:none;stroke-opacity:1;paint-order:stroke fill markers"
   d="M 64.148253,67.215679 V 89.292641"
   id="path52588" /><path
   style="font-variation-settings:'opsz' 12, 'wght' 400;fill:none;stroke:#2f2f2f;stroke-width:5.34337;stroke-linecap:round;stroke-dasharray:none;stroke-opacity:1;paint-order:stroke fill markers"
   d="M 83.501857,64.052873 V 86.129835"
   id="path52590" /></svg>

<?xml version="1.0" encoding="UTF-8" standalone="no"?>
<!DOCTYPE svg PUBLIC "-//W3C//DTD SVG 1.1//EN" "http://www.w3.org/Graphics/SVG/1.1/DTD/svg11.dtd">
<svg width="100%" height="100%" viewBox="0 0 128 128" version="1.1" xmlns="http://www.w3.org/2000/svg" xmlns:xlink="http://www.w3.org/1999/xlink" xml:space="preserve" xmlns:serif="http://www.serif.com/" style="fill-rule:evenodd;clip-rule:evenodd;stroke-linejoin:round;stroke-miterlimit:2;">
    <path d="M63.89,9.64C1.58,9.64 0.1,79.5 0.1,93.33C0.1,107.16 28.66,118.36 63.89,118.36C99.13,118.36 127.68,107.15 127.68,93.33C127.68,79.5 126.21,9.64 63.89,9.64Z" style="fill:rgb(252,194,27);fill-rule:nonzero;"/>
    <path d="M31.96,51.85C31.188,53.124 29.509,53.542 28.23,52.78C26.954,52.022 26.522,50.352 27.27,49.07C27.45,48.76 31.87,41.45 41.64,41.45C51.42,41.45 55.84,48.76 56.03,49.07C56.273,49.488 56.401,49.962 56.401,50.445C56.401,51.944 55.169,53.178 53.67,53.18C52.75,53.18 51.84,52.71 51.33,51.86C51.2,51.64 48.21,46.9 41.64,46.9C35.07,46.89 32.1,51.64 31.96,51.85ZM100,52.79C99.57,53.05 99.09,53.17 98.63,53.17C97.69,53.17 96.78,52.68 96.27,51.83C96.16,51.63 93.19,46.89 86.61,46.89C79.92,46.89 76.95,51.78 76.92,51.83C76.424,52.632 75.546,53.122 74.603,53.122C73.108,53.122 71.879,51.893 71.879,50.398C71.879,49.929 72,49.468 72.23,49.06C72.41,48.75 76.83,41.44 86.61,41.44C96.38,41.44 100.79,48.75 100.97,49.06C101.73,50.36 101.29,52.03 100,52.79Z" style="fill:rgb(47,47,47);fill-rule:nonzero;"/>
    <path d="M96.462,62.716C93.372,60.626 89.482,62.006 86.042,62.716C76.462,64.696 68.042,64.776 64.002,64.776C59.962,64.776 51.542,64.696 41.962,62.716C38.522,62.006 34.632,60.626 31.542,62.716C27.622,65.366 30.512,74.866 36.682,81.286C40.412,85.166 49.292,92.696 64.002,92.696C78.712,92.696 87.592,85.166 91.322,81.286C97.492,74.866 100.372,65.366 96.462,62.716Z" style="fill:rgb(230,86,25);fill-rule:nonzero;"/>
    <g transform="matrix(0.893433,0,0,0.706028,6.82026,22.6806)">
        <path d="M96.462,62.716C93.372,60.626 89.482,62.006 86.042,62.716C76.462,64.696 68.042,64.776 64.002,64.776C59.962,64.776 51.542,64.696 41.962,62.716C38.522,62.006 34.632,60.626 31.542,62.716C27.622,65.366 30.512,74.866 36.682,81.286C40.412,85.166 49.292,92.696 64.002,92.696C78.712,92.696 87.592,85.166 91.322,81.286C97.492,74.866 100.372,65.366 96.462,62.716Z" style="fill:rgb(191,63,12);fill-rule:nonzero;"/>
    </g>
    <path d="M35.354,64.106C34.398,64.116 33.641,64.316 32.944,64.788L32.941,64.788C32.654,64.982 32.419,65.288 32.301,66.167C32.182,67.046 32.299,68.383 32.732,69.899C32.732,69.899 32.732,69.899 32.732,69.899C32.957,70.68 33.551,71.301 34.321,71.559C42.444,74.21 53.018,75.69 64,75.696C74.962,75.695 85.523,74.226 93.65,71.586C94.434,71.325 95.038,70.694 95.267,69.901C95.268,69.901 95.268,69.901 95.268,69.901C95.701,68.384 95.818,67.047 95.699,66.167C95.581,65.288 95.347,64.981 95.063,64.787C94.133,64.159 93.094,64.013 91.623,64.155C90.153,64.297 88.399,64.783 86.549,65.165C76.698,67.201 68.075,67.276 64.002,67.276C59.929,67.276 51.308,67.201 41.457,65.165C39.606,64.783 37.852,64.297 36.381,64.155C36.04,64.12 35.697,64.104 35.354,64.106Z" style="fill:rgb(250,250,250);fill-rule:nonzero;"/>
    <path d="M34.353,72.484C34.222,72.441 34.079,72.479 33.988,72.582C33.896,72.685 33.875,72.832 33.933,72.956C35.016,75.217 36.579,77.572 38.485,79.555C41.96,83.171 50.145,90.197 64.002,90.197C77.859,90.197 86.043,83.171 89.52,79.555C91.418,77.58 92.975,75.234 94.056,72.981C94.113,72.857 94.092,72.71 94.001,72.608C93.91,72.506 93.768,72.467 93.638,72.509C85.424,75.136 74.926,76.585 64,76.586C53.062,76.58 42.56,75.122 34.353,72.484Z" style="fill:rgb(250,250,250);fill-rule:nonzero;"/>
</svg>
